svgs/sharp-solid/tire-pressure-warning.svg

<svg xmlns="http://www.w3.org/2000/svg" viewBox="0 0 512 512"><!--! Font Awesome Pro 6.6.0 by @fontawesome - https://fontawesome.com License - https://fontawesome.com/license (Commercial License) Copyright 2024 Fonticons, Inc. --><path d="M384 32l0-32 64 0 0 32 0 22.5c0 24.1 3.9 48 11.5 70.8l2.5 7.4c4.8 14.4 11.5 28.6 19.3 44.4c17.5 35.6 33.4 82.6 27.5 136.2c-5.3 48.6-28.1 99-76.8 148.7l0 50-64 0 0-24-32 0 0 24-64 0 0-24-32 0 0 24-64 0 0-24-32 0 0 24-64 0 0-50C31.3 412.3 8.6 361.9 3.2 313.3c-5.9-53.6 9.9-100.6 27.5-136.2c7.8-15.8 14.5-30 19.3-44.4l2.5-7.4C60.1 102.5 64 78.5 64 54.5L64 32 64 0l64 0 0 32 0 22.5c0 31-5 61.7-14.8 91.1l-2.5 7.4c-6.3 19-14.8 36.6-22.6 52.5c-14.7 29.7-25.3 64-21.3 100.9c3.7 34 20.4 74.1 65.7 117.7l246.8 0c45.3-43.6 62-83.7 65.7-117.7c4.1-36.9-6.6-71.1-21.3-100.9c-7.8-15.8-16.3-33.5-22.6-52.5l-2.5-7.4C389 116.2 384 85.4 384 54.5L384 32zM280 120l0 112 0 24-48 0 0-24 0-112 0-24 48 0 0 24zm0 168l0 48-48 0 0-48 48 0z"/></svg>

<svg xmlns="http://www.w3.org/2000/svg" viewBox="0 0 512 512"><!--! Font Awesome Pro 6.4.2 by @fontawesome - https://fontawesome.com License - https://fontawesome.com/license (Commercial License) Copyright 2023 Fonticons, Inc. --><path d="M384 32V0h64V32 54.5c0 24.1 3.9 48 11.5 70.8l2.5 7.4c4.8 14.4 11.5 28.6 19.3 44.4c17.5 35.6 33.4 82.6 27.5 136.2c-5.3 48.6-28.1 99-76.8 148.7v50H368V488H336v24H272V488H240v24H176V488H144v24H80V462C31.3 412.3 8.6 361.9 3.2 313.3c-5.9-53.6 9.9-100.6 27.5-136.2c7.8-15.8 14.5-30 19.3-44.4l2.5-7.4C60.1 102.5 64 78.5 64 54.5V32 0h64V32 54.5c0 31-5 61.7-14.8 91.1l-2.5 7.4c-6.3 19-14.8 36.6-22.6 52.5c-14.7 29.7-25.3 64-21.3 100.9c3.7 34 20.4 74.1 65.7 117.7H379.4c45.3-43.6 62-83.7 65.7-117.7c4.1-36.9-6.6-71.1-21.3-100.9c-7.8-15.8-16.3-33.5-22.6-52.5l-2.5-7.4C389 116.2 384 85.4 384 54.5V32zM280 120V232v24H232V232 120 96h48v24zm0 168v48H232V288h48z"/></svg>
